X:1
T:Sonata III
T:J S Bach
%%score 1 2 3
L:1/8
Q:1/4=50
M:6/8
K:C
V:1 treble nm="Flute" snm="Fl."
V:2 treble nm="Flute" snm="Fl."
V:3 bass nm="Bassoon" snm="Bsn."
V:1
"^Largo e dolce\n"!mp! (c/B/)d/c/B/A/ A^G z | (e/d/f/e/d/c/) cB z | ^c/d/ e2- e/(d/f/e/d/=c/) | %3
 B/c/ d2- d/(c/e/d/c/B/) | A3- A/(^G/B/A/G/A/4B/4) | E3- E/(^G/A/c/B/d/) | %6
 (^G/B/d/f/e/d/) c/d<de/ | e6- | e3- e.f z | Bcd (e/4d/4c<)Bc/ | .c._B z (A/=G/B/A/G/F/) | %11
 T^c2 d- d/e<Tcd/ | d3 .=c.=B z | c(B/A/)d B/(A/G/A/B/c/) | d3- d/(G/A/B/c/d/) | %15
 e3- e/A/B/^c/d/e/ | f3 (g/^f/)g z | (g/^f/)(a/g/f/e/) ^d2 z | (B/A/=c/B/A/G/) TG^F z | %19
 (g/^f/a/g/f/e/) e^d z | =d>(=fe/d/) c3- | c>(ed/c/) B3- | B/(A/c/B/A/G/) ^F ^f2- | %23
 f/a/g/^f/e/^d/ e/f/g/b/a/c'/ | ^f^de- e/f<de/ | e/^f/^g/a/b/c'/ (=d'bg) | (=fdB) .^G.=G z | %27
 .^F.^G z ABG | (A/^c/d/c/B/A/) (d/c/e/d/c/d/) | e/d/=f/e/d/e/ f3- | f/G/A/B/c/d/ e3- | %31
 e/A/^G/A/B/c/ d3- | d/c/e/d/c/B/ c/A/BT^G | A/a/=g/e/f/d/ e/g/f/d/e/c/ | d>ec- c/B<BA/ | %35
 A>Bc- c/d<Tde/ | e6 |] %37
V:2
!mp! (E/D/F/E/) D2 B z | (c/B/d/c/B/A/) A^G z | (=G>_BA/G/) F3- | F>(AG/F/) E3- | E/(D/F/E/D) B3- | %5
 B/(d/c/B/A/^G/) (A/B/c/)(E/D/F/) | B^GB- B/(G/A/c/B/A/) | ^G/(^F/A/G/F/E/) A/(G/B/A/G/A/) | %8
 B/(d/c/B/A/B/) .^c.d z | DEF G/4F/4E<DE/ | TE3- E D2 | G>AF- F/G<TEF/ | F3 .^F.G z | %13
 AG^F G(B/A/G/E/) | =F3- F/(B/A/G/E/F/) | G3- G/^C/D/E/F/G/ | A3 .c.B z | (B/A/)(c/B/A/G/) ^F2 z | %18
 (G/^F/A/G/F/E/) E^D z | (B/A/c/B/A/G/) TG^F z | ^G/A/ B2- B/(A/c/B/A/=G/) | %21
 ^F/G/ A2- A/(G/B/A/G/F/) | E3- E/(^D/^F/E/D/E/4F/4) | B3- B/^D/E/G/^F/A/ | %24
 ^D/^F/A/c/B/A/ G/A<FE/ | E3- E/^F/^G/A/B/c/ | (=dB^G) .E.e z | .A.d z (c/B/d/c/B/c/) | A6- | %29
 A3- A/D/E/F/G/A/ | B3- B/=C/D/E/^F/^G/ | A3- A/B/c/d/e/f/ | ^GBe- e/c/dTB | A2 z z/ e/d/B/c/A/ | %34
 B>cA- A/B<^GA/ | A/E/F/D/E/B/ c/^G/A/G/A/B/ | c/c/B/^G/A/^F/ G3 |] %37
V:3
!mp! A,A,,D, E,>(D,C,/B,,/) | A,,A,D E>(DC/B,/) | A,^C, z D,DF, | G,B,, z =C,CE, | %4
 F,3- F,/(E,/D,/C,/B,,/A,,/) | ^G,,/(E,,/A,,/=G,,/F,,/E,,/) F,, F,2- | F,B,,^G,, A,, F,,2 | %7
 .E,,.D,, z C,/(B,,/D,/C,/B,,/A,,/) | ^G,,/(E,,/A,,/=G,,/F,,/E,,/) .G,,.F,, z | %9
 F,/E,/G,/F,/E,/D,/ C,G,G,, | .C,.^C, z F,G,/A,/_B, | E,/D,/F,/E,/D,/=C,/ _B,,/G,,/A,,A, | %12
 D/(C/E/D/C/B,/) .A,.E z | CDD, G,2 z | B,,/A,,/C,/B,,/A,,/G,,/ E,2 D, | %15
 C,/B,,/D,/C,/B,,/A,,/ F,2 E, | D,/C,/E,/D,/C,/B,,/ A,,E, z | C,^F,,A,, B,,/C,/B,,/A,,/G,,/F,,/ | %18
 E,,E,A, B,>(A,G,/^F,/) | E,E,,A,, B,,>(A,,G,,/^F,,/) | E,,^G,, z A,,A,C, | D,^F, z G,,G,B,, | %22
 C, z C- C/(B,/A,/G,/^F,/E,/) | ^D,/B,,/E,/=D,/C,/B,,/ C,3- | C,^F,,G,, A,,B,,B,, | E,,6- | %26
 E,,/^F,,/^G,,/A,,/B,,/C,/ .D,.^C, z | .=C,.B,, z A,,D,,E,, | A,,=G,, z (=F,/E,/G,/F,/E,/D,/) | %29
 ^C,/B,,/D,/C,/B,,/A,,/ D,2 z | G,,2 z C,2 z | F,2 z B,,2 z | E,^G,,E,, A,,D,,E,, | A,,6- | %34
 A,,/A,/^G,/E,/A,/=G,/ F,/D,/E,E,, | A,,2 =G,, F,,/E,,/ F,,2 | E,,6 |] %37

